;FLAVOR:Marlin
;TIME:2265
;Filament used: 2.1569m
;Layer height: 0.2
;MINX:0
;MINY:0
;MINZ:0.2
;MAXX:224
;MAXY:224.886
;MAXZ:33.2
;TARGET_MACHINE.NAME:Anycubic Kobra Max
;Generated with Cura_SteamEngine 5.13.0
M140 S60
M105
M190 S60
M104 S195
M105
M109 S195
G28 ;Home
G1 Z15.0 F1200 ;Move the platform down 15mm
;Prime the extruder
G92 E0
G1 F200 E3
G92 E0
M82 ;absolute extrusion mode
G92 E0
G92 E0
G1 F2400 E-6
;LAYER_COUNT:166
;LAYER:0
M107
M204 S3000
M205 X10 Y10
G1 F1200 Z0.275
G0 F6000 X182.624 Y208.673
M204 S1000
M205 X8 Y8
;TYPE:SKIRT
G1 F1200 Z0.2
G1 F2400 E0
G1 X183.702 Y207.96 E0.06861
G1 X185.208 Y207.313 E0.15562
G1 X186.804 Y207.135 E0.24086
G1 X192.024 Y207.113 E0.51796
G1 X194.525 Y207.12 E0.65072
G1 X217.42 Y207.12 E1.86606
G1 X218.808 Y207.355 E1.94079
G1 X219.824 Y207.726 E1.9982
G1 X221.377 Y208.6 E2.0928
G1 X222.382 Y209.692 E2.17158
G1 X223.105 Y210.7 E2.23743
G1 X223.738 Y212.17 E2.32239
G1 X224 Y213.68 E2.40374
G1 X223.963 Y218.435 E2.65616
G1 X223.802 Y219.579 E2.71748
G1 X223.41 Y220.666 E2.77882
G1 X222.547 Y222.223 E2.87332
G1 X221.375 Y223.333 E2.95901
G1 X220.307 Y224.038 E3.02694
G1 X219.013 Y224.594 E3.1017
G1 X217.528 Y224.88 E3.18198
G1 X191.988 Y224.886 E4.53772
G1 X186.49 Y224.874 E4.82957
G1 X184.981 Y224.608 E4.91091
G1 X183.094 Y223.73 E5.02139
G1 X181.793 Y222.55 E5.11463
G1 X180.9 Y221.316 E5.19549
G1 X180.185 Y219.65 E5.29172
G1 X180 Y217.851 E5.38772
G1 X180.036 Y213.624 E5.61211
G1 X180.207 Y212.397 E5.67788
G1 X180.617 Y211.318 E5.73915
G1 X181.433 Y209.808 E5.83026
G1 X182.624 Y208.673 E5.91759
M204 S3000
M205 X10 Y10
G0 F6000 X182.972 Y209.114
M204 S1000
M205 X8 Y8
G1 F2400 X183.967 Y208.456 E5.98092
G1 X185.353 Y207.861 E6.06098
G1 X186.866 Y207.692 E6.1418
G1 X192.022 Y207.673 E6.41549
G1 X194.523 Y207.68 E6.54826
G1 X217.374 Y207.68 E7.76126
G1 X218.663 Y207.898 E7.83066
G1 X219.588 Y208.236 E7.88293
G1 X221.026 Y209.045 E7.97052
G1 X221.927 Y210.018 E8.04091
G1 X222.614 Y210.976 E8.10349
G1 X223.197 Y212.329 E8.18169
G1 X223.44 Y213.728 E8.25707
G1 X223.408 Y218.357 E8.5028
G1 X223.255 Y219.445 E8.56112
G1 X222.898 Y220.435 E8.61698
G1 X222.1 Y221.875 E8.70438
G1 X221.022 Y222.896 E8.78319
G1 X220.041 Y223.543 E8.84557
G1 X218.85 Y224.055 E8.91439
G1 X217.474 Y224.32 E8.98878
G1 X191.989 Y224.326 E10.3416
G1 X186.537 Y224.314 E10.63101
G1 X185.153 Y224.07 E10.70561
G1 X183.407 Y223.258 E10.80783
G1 X182.213 Y222.175 E10.8934
G1 X181.391 Y221.039 E10.96783
G1 X180.733 Y219.506 E11.05639
G1 X180.56 Y217.856 E11.14445
G1 X180.596 Y213.629 E11.36884
G1 X180.752 Y212.538 E11.42735
G1 X181.11 Y211.584 E11.48144
G1 X181.885 Y210.15 E11.56796
G1 X182.972 Y209.114 E11.64767
M204 S3000
M205 X10 Y10
G0 F6000 X183.32 Y209.555
M204 S1000
M205 X8 Y8
G1 F2400 X184.232 Y208.952 E11.70571
G1 X185.498 Y208.409 E11.77883
G1 X186.928 Y208.249 E11.85522
G1 X192.02 Y208.233 E12.12552
G1 X194.521 Y208.24 E12.25828
G1 X217.327 Y208.24 E13.46889
G1 X218.519 Y208.442 E13.53307
G1 X219.352 Y208.746 E13.58014
G1 X220.674 Y209.49 E13.66067
G1 X221.516 Y210.399 E13.72644
G1 X222.124 Y211.253 E13.78209
G1 X222.656 Y212.488 E13.85347
G1 X222.88 Y213.776 E13.92287
G1 X222.853 Y218.279 E14.16191
G1 X222.708 Y219.311 E14.21723
G1 X222.386 Y220.204 E14.26762
G1 X221.653 Y221.527 E14.3479
G1 X220.669 Y222.459 E14.41985
G1 X219.779 Y223.046 E14.47644
G1 X218.683 Y223.517 E14.53977
G1 X217.42 Y223.76 E14.60804
G1 X191.99 Y223.766 E15.95795
G1 X186.584 Y223.754 E16.24491
G1 X185.325 Y223.532 E16.31278
G1 X183.72 Y222.786 E16.40673
G1 X182.633 Y221.8 E16.48463
G1 X181.882 Y220.762 E16.55264
G1 X181.281 Y219.362 E16.63352
G1 X181.12 Y217.861 E16.71365
G1 X181.156 Y213.634 E16.93804
G1 X181.298 Y212.676 E16.98945
G1 X181.603 Y211.85 E17.03619
G1 X182.337 Y210.492 E17.11814
G1 X183.32 Y209.555 E17.19022
M204 S3000
M205 X10 Y10
G0 F6000 X183.668 Y209.996
M204 S1000
M205 X8 Y8
G1 F2400 X184.497 Y209.448 E17.24298
G1 X185.643 Y208.957 E17.30916
G1 X186.99 Y208.806 E17.38111
G1 X192.018 Y208.793 E17.64801
G1 X194.519 Y208.8 E17.78077
G1 X217.281 Y208.8 E18.98905
G1 X218.374 Y208.985 E19.0479
G1 X219.116 Y209.256 E19.08983
G1 X220.322 Y209.935 E19.1633
G1 X221.06 Y210.724 E19.22065
G1 X221.635 Y211.531 E19.27325
G1 X222.115 Y212.646 E19.33768
G1 X222.32 Y213.824 E19.40116
G1 X222.298 Y218.201 E19.6335
G1 X222.161 Y219.177 E19.68582
G1 X221.874 Y219.973 E19.73074
G1 X221.206 Y221.179 E19.80392
G1 X220.316 Y222.022 E19.86899
G1 X219.517 Y222.549 E19.9198
G1 X218.516 Y222.979 E19.97763
G1 X217.366 Y223.2 E20.0398
G1 X191.991 Y223.206 E21.38678
G1 X186.636 Y223.194 E21.67104
G1 X185.493 Y222.993 E21.73265
G1 X184.033 Y222.314 E21.81812
G1 X183.053 Y221.425 E21.88836
G1 X182.371 Y220.482 E21.95014
G1 X181.829 Y219.221 E22.02299
G1 X181.68 Y217.865 E22.09541
G1 X181.71 Y213.716 E22.31566
G1 X181.843 Y212.816 E22.36395
G1 X182.096 Y212.116 E22.40346
G1 X182.789 Y210.834 E22.48082
G1 X183.668 Y209.996 E22.54529
M204 S3000
M205 X10 Y10
G0 F6000 X184.021 Y210.433
M204 S1000
M205 X8 Y8
G1 F2400 X184.759 Y209.946 E22.59222
G1 X185.79 Y209.504 E22.65177
G1 X186.991 Y209.366 E22.71594
G1 X192.016 Y209.353 E22.98269
G1 X194.517 Y209.36 E23.11545
G1 X217.235 Y209.36 E24.32139
G1 X218.229 Y209.528 E24.3749
G1 X218.88 Y209.766 E24.4117
G1 X219.971 Y210.38 E24.47815
G1 X220.651 Y211.107 E24.53099
G1 X221.144 Y211.807 E24.57644
G1 X221.574 Y212.805 E24.63413
G1 X221.76 Y213.873 E24.69167
G1 X221.743 Y218.123 E24.91728
G1 X221.614 Y219.043 E24.96659
G1 X221.362 Y219.742 E25.00604
G1 X220.759 Y220.831 E25.07212
G1 X219.967 Y221.581 E25.13002
G1 X219.246 Y222.056 E25.17585
G1 X218.354 Y222.44 E25.2274
G1 X217.312 Y222.64 E25.28372
G1 X191.992 Y222.646 E26.62779
G1 X186.688 Y222.634 E26.90934
G1 X185.661 Y222.454 E26.96469
G1 X184.346 Y221.842 E27.04168
G1 X183.473 Y221.05 E27.10425
G1 X182.862 Y220.205 E27.15961
G1 X182.376 Y219.074 E27.22495
G1 X182.24 Y217.868 E27.28938
G1 X182.264 Y213.798 E27.50543
G1 X182.389 Y212.954 E27.55072
G1 X182.623 Y212.306 E27.58729
G1 X183.239 Y211.179 E27.65547
G1 X184.021 Y210.433 E27.71284
M204 S3000
M205 X10 Y10
G0 F6000 X184.371 Y210.873
M204 S1000
M205 X8 Y8
G1 F2400 X185.025 Y210.442 E27.75442
G1 X185.937 Y210.051 E27.80709
G1 X186.992 Y209.926 E27.86348
G1 X192.014 Y209.913 E28.13007
G1 X194.515 Y209.92 E28.26283
G1 X217.188 Y209.92 E29.46639
G1 X218.085 Y210.072 E29.51468
G1 X218.644 Y210.276 E29.54627
G1 X219.621 Y210.826 E29.60578
G1 X220.193 Y211.43 E29.64994
G1 X220.654 Y212.084 E29.69242
G1 X221.033 Y212.964 E29.74328
G1 X221.2 Y213.922 E29.7949
G1 X221.188 Y218.045 E30.01376
G1 X221.067 Y218.909 E30.06007
G1 X220.85 Y219.511 E30.09404
G1 X220.312 Y220.483 E30.15301
G1 X219.618 Y221.14 E30.20374
G1 X218.977 Y221.562 E30.24448
G1 X218.189 Y221.902 E30.29004
G1 X217.259 Y222.08 E30.3403
G1 X191.993 Y222.086 E31.6815
G1 X186.739 Y222.074 E31.9604
G1 X185.83 Y221.915 E32.00939
G1 X184.659 Y221.37 E32.07795
G1 X183.893 Y220.675 E32.13285
G1 X183.353 Y219.928 E32.18178
G1 X182.923 Y218.927 E32.23961
G1 X182.8 Y217.871 E32.29605
G1 X182.818 Y213.88 E32.50791
G1 X182.934 Y213.094 E32.55008
G1 X183.15 Y212.497 E32.58378
G1 X183.688 Y211.525 E32.64276
G1 X184.371 Y210.873 E32.69288
M204 S3000
M205 X10 Y10
G0 F6000 X184.721 Y211.313
M204 S1000
M205 X8 Y8
G1 F2400 X185.291 Y210.938 E32.7291
G1 X186.084 Y210.598 E32.7749
G1 X186.993 Y210.486 E32.82352
G1 X192.012 Y210.473 E33.08994
G1 X194.513 Y210.48 E33.2227
G1 X217.141 Y210.48 E34.42387
G1 X217.944 Y210.616 E34.4671
G1 X218.369 Y210.764 E34.49099
G1 X219.272 Y211.272 E34.54599
G1 X219.786 Y211.815 E34.58568
G1 X220.164 Y212.36 E34.62089
G1 X220.492 Y213.122 E34.66492
G1 X220.64 Y213.971 E34.71067
G1 X220.628 Y218.043 E34.92683
G1 X220.521 Y218.772 E34.96594
G1 X220.338 Y219.28 E34.9946
G1 X219.863 Y220.137 E35.04662
G1 X219.272 Y220.697 E35.08983
G1 X218.708 Y221.068 E35.12567
G1 X218.024 Y221.364 E35.16523
G1 X217.206 Y221.52 E35.20944
G1 X191.994 Y221.526 E36.54777
G1 X186.791 Y221.514 E36.82396
G1 X185.998 Y221.375 E36.8667
G1 X184.972 Y220.898 E36.92676
G1 X184.313 Y220.3 E36.974
G1 X183.844 Y219.651 E37.0165
G1 X183.47 Y218.78 E37.06682
G1 X183.36 Y217.873 E37.11532
G1 X183.372 Y213.962 E37.32293
G1 X183.48 Y213.232 E37.3621
G1 X183.662 Y212.728 E37.39055
G1 X184.136 Y211.872 E37.44249
G1 X184.721 Y211.313 E37.48544
M204 S3000
M205 X10 Y10
G0 F6000 X185.071 Y211.753
M204 S1000
M205 X8 Y8
G1 F2400 X185.558 Y211.433 E37.51637
G1 X186.233 Y211.144 E37.55535
G1 X186.994 Y211.046 E37.59608
G1 X192.01 Y211.033 E37.86235
G1 X194.511 Y211.04 E37.99511
G1 X217.093 Y211.04 E39.19383
G1 X217.774 Y211.15 E39.23045
G1 X218.095 Y211.252 E39.24833
G1 X218.922 Y211.717 E39.29869
G1 X219.379 Y212.2 E39.33399
G1 X219.672 Y212.632 E39.3617
G1 X219.951 Y213.28 E39.39915
G1 X220.08 Y214.02 E39.43902
G1 X220.074 Y217.962 E39.64828
G1 X219.967 Y218.691 E39.68739
G1 X219.848 Y219.009 E39.70541
G1 X219.416 Y219.789 E39.75274
G1 X218.923 Y220.256 E39.78879
G1 X218.441 Y220.573 E39.81941
G1 X217.857 Y220.826 E39.8532
G1 X217.153 Y220.96 E39.89124
G1 X191.995 Y220.966 E41.22671
G1 X186.842 Y220.954 E41.50025
G1 X186.167 Y220.836 E41.53662
G1 X185.287 Y220.427 E41.58813
G1 X184.731 Y219.922 E41.628
G1 X184.333 Y219.371 E41.66408
G1 X184.017 Y218.636 E41.70655
G1 X183.92 Y217.874 E41.74733
G1 X183.926 Y214.044 E41.95064
G1 X184.034 Y213.314 E41.98981
G1 X184.152 Y212.999 E42.00767
G1 X184.584 Y212.219 E42.055
G1 X185.071 Y211.753 E42.09078
M204 S3000
M205 X10 Y10
G0 F6000 X185.423 Y212.191
M204 S1000
M205 X8 Y8
G1 F2400 X185.779 Y211.948 E42.11366
G1 X186.383 Y211.689 E42.14854
G1 X186.995 Y211.606 E42.18133
G1 X192.008 Y211.593 E42.44744
G1 X194.509 Y211.6 E42.5802
G1 X217.047 Y211.6 E43.77659
G1 X217.685 Y211.703 E43.81089
G1 X217.87 Y211.768 E43.8213
G1 X218.572 Y212.162 E43.86403
G1 X218.941 Y212.552 E43.89253
G1 X219.181 Y212.906 E43.91524
G1 X219.41 Y213.438 E43.94598
G1 X219.52 Y214.07 E43.98003
G1 X219.52 Y217.88 E44.18228
G1 X219.421 Y218.552 E44.21834
G1 X219.358 Y218.737 E44.22871
G1 X218.967 Y219.442 E44.27151
G1 X218.574 Y219.815 E44.30027
G1 X218.133 Y220.105 E44.32829
G1 X217.693 Y220.287 E44.35356
G1 X217.1 Y220.4 E44.38561
G1 X191.996 Y220.406 E45.71821
G1 X186.894 Y220.394 E45.98904
G1 X186.335 Y220.296 E46.01916
G1 X185.6 Y219.955 E46.06217
G1 X185.151 Y219.547 E46.09438
G1 X184.822 Y219.091 E46.12423
G1 X184.563 Y218.489 E46.15902
G1 X184.48 Y217.874 E46.19196
G1 X184.48 Y214.126 E46.39091
G1 X184.579 Y213.454 E46.42697
G1 X184.642 Y213.27 E46.43729
G1 X185.032 Y212.565 E46.48006
G1 X185.423 Y212.191 E46.50878
M204 S3000
M205 X10 Y10
G0 F6000 X185.739 Y212.654
M204 S1000
M205 X8 Y8
G1 F2400 X186.095 Y212.411 E46.53166
G1 X186.533 Y212.234 E46.55674
G1 X186.996 Y212.166 E46.58158
G1 X192.006 Y212.153 E46.84753
G1 X194.507 Y212.16 E46.98029
G1 X217.001 Y212.16 E48.17434
G1 X217.596 Y212.256 E48.20634
G1 X218.223 Y212.608 E48.24451
G1 X218.477 Y212.866 E48.26373
G1 X218.717 Y213.22 E48.28643
G1 X218.858 Y213.534 E48.3047
G1 X218.96 Y214.12 E48.33627
G1 X218.96 Y217.88 E48.53587
G1 X218.868 Y218.465 E48.5673
G1 X218.518 Y219.096 E48.60561
G1 X218.259 Y219.352 E48.62494
G1 X217.902 Y219.595 E48.64786
G1 X217.588 Y219.737 E48.66615
G1 X217.047 Y219.84 E48.69539
G1 X191.997 Y219.846 E50.02512
G1 X186.946 Y219.834 E50.29325
G1 X186.501 Y219.756 E50.31723
G1 X185.914 Y219.484 E50.35157
G1 X185.528 Y219.133 E50.37927
G1 X185.285 Y218.776 E50.40219
G1 X185.108 Y218.339 E50.42722
G1 X185.04 Y217.874 E50.45216
G1 X185.04 Y214.126 E50.65112
G1 X185.132 Y213.541 E50.68255
G1 X185.481 Y212.911 E50.72079
G1 X185.739 Y212.654 E50.74012
M204 S3000
M205 X10 Y10
G0 F6000 X186.055 Y213.117
M204 S1000
M205 X8 Y8
G1 F2400 X186.411 Y212.874 E50.763
G1 X186.623 Y212.787 E50.77516
G1 X186.997 Y212.726 E50.79528
G1 X192.004 Y212.713 E51.06106
G1 X194.505 Y212.72 E51.19383
G1 X217.001 Y212.72 E52.38799
G1 X217.409 Y212.793 E52.40999
G1 X217.838 Y213.014 E52.4356
G1 X218.013 Y213.18 E52.44841
G1 X218.253 Y213.534 E52.47111
G1 X218.339 Y213.745 E52.48321
G1 X218.4 Y214.12 E52.50337
G1 X218.4 Y217.88 E52.70297
G1 X218.33 Y218.282 E52.72463
G1 X218.111 Y218.712 E52.75024
G1 X217.944 Y218.889 E52.76316
G1 X217.587 Y219.132 E52.78609
G1 X217.375 Y219.219 E52.79825
G1 X217 Y219.28 E52.81842
G1 X191.998 Y219.286 E54.1456
G1 X186.998 Y219.274 E54.41102
G1 X186.598 Y219.204 E54.43258
G1 X186.168 Y218.985 E54.45819
G1 X185.991 Y218.818 E54.47111
G1 X185.748 Y218.461 E54.49403
G1 X185.661 Y218.249 E54.5062
G1 X185.6 Y217.874 E54.52637
G1 X185.6 Y214.126 E54.72532
G1 X185.67 Y213.724 E54.74698
G1 X185.889 Y213.294 E54.7726
G1 X186.055 Y213.117 E54.78548
M204 S3000
M205 X10 Y10
G0 F6000 X186.866 Y213.88
M204 S1000
M205 X8 Y8
G1 F2400 X186.999 Y213.846 E54.79277
G1 X192 Y213.833 E55.05824
G1 X194.501 Y213.84 E55.191
G1 X217.001 Y213.84 E56.38537
G1 X217.144 Y213.88 E56.39325
G1 X217.246 Y213.987 E56.4011
G1 X217.28 Y214.12 E56.40838
G1 X217.28 Y217.88 E56.60798
G1 X217.241 Y218.023 E56.61585
G1 X217.134 Y218.126 E56.62373
G1 X217 Y218.16 E56.63107
G1 X192 Y218.166 E57.95815
G1 X187 Y218.154 E58.22356
G1 X186.857 Y218.115 E58.23143
G1 X186.754 Y218.008 E58.23932
G1 X186.72 Y217.874 E58.24665
G1 X186.72 Y214.126 E58.44561
G1 X186.759 Y213.983 E58.45348
G1 X186.866 Y213.88 E58.46136
M204 S3000
M205 X10 Y10
G0 F6000 X186.727 Y213.337
M204 S1000
M205 X8 Y8
G1 F2400 X186.998 Y213.286 E58.476
G1 X192.002 Y213.273 E58.74163
G1 X194.503 Y213.28 E58.87439
G1 X217.001 Y213.28 E60.06866
G1 X217.295 Y213.341 E60.0846
G1 X217.549 Y213.494 E60.10034
G1 X217.789 Y213.848 E60.12304
G1 X217.84 Y214.12 E60.13773
G1 X217.84 Y217.88 E60.33732
G1 X217.781 Y218.17 E60.35303
G1 X217.629 Y218.426 E60.36884
G1 X217.272 Y218.669 E60.39176
G1 X217 Y218.72 E60.40645
G1 X191.999 Y218.726 E61.73358
G1 X186.999 Y218.714 E61.999
G1 X186.71 Y218.655 E62.01466
G1 X186.454 Y218.503 E62.03046
G1 X186.211 Y218.146 E62.05338
G1 X186.16 Y217.874 E62.06807
G1 X186.16 Y214.126 E62.26703
G1 X186.219 Y213.836 E62.28274
G1 X186.371 Y213.58 E62.29854
G1 X186.727 Y213.337 E62.32142
M204 S3000
M205 X10 Y10
G1 F2400 E56.32142
;MESH:Skyhook Spool.stl
G0 F6000 X191.996 Y213.449
G0 X191.999 Y214.543
G0 X215.5 Y216.38
M204 S1000
M205 X8 Y8
;TYPE:WALL-INNER
G1 F2400 E62.32142
G1 F1989.5 X215.5 Y215.62 E62.37618
G1 F1997.4 X188.497 Y215.621 E64.31383
G1 F2005.3 X188.497 Y216.375 E64.36772
G1 F1997.4 X215.5 Y216.38 E66.30538
M204 S3000
M205 X10 Y10
G0 F6000 X216.16 Y217.04
M204 S1000
M205 X8 Y8
G1 F2700 X216.16 Y214.96 E66.41579
G1 X187.84 Y214.964 E67.91911
G1 X187.84 Y217.032 E68.02888
G1 X216.16 Y217.04 E69.5322
M204 S3000
M205 X10 Y10
G0 F6000 X216.72 Y217.6
M204 S1000
M205 X8 Y8
;TYPE:WALL-OUTER
G1 F2700 X216.72 Y214.4 E69.70207
G1 X187.28 Y214.404 E71.26483
G1 X187.28 Y217.592 E71.43406
G1 X216.72 Y217.6 E72.99683
M204 S3000
M205 X10 Y10
G0 F6000 X216.72 Y217.4
G0 X215.795 Y216.51
G1 F2400 E66.99683
;MESH:NONMESH
G0 F1200 Z0.4
G0 F6000 X196.23 Y214.55
G0 X196.23 Y213.455
G0 X196.23 Y192.582
;TIME_ELAPSED:41.950874
;LAYER:1
M106 S255
M204 S1000
M205 X8 Y8
;TYPE:WALL-OUTER
;MESH:Skyhook Spool.stl
G1 F2400 E72.99683
G1 F2160 X196.23 Y189.414 E73.12196
M204 S3000
M205 X10 Y10
G1 F2400 E67.12196
G0 F6000 X197.148 Y189.414
G0 X201.318 Y192.582
G0 X202.23 Y192.582
M204 S1000
M205 X8 Y8
G1 F2400 E73.12196
G1 F2160 X202.23 Y189.414 E73.24708
M204 S3000
M205 X10 Y10
G1 F2400 E67.24708
G0 F6000 X201.318 Y189.414
G0 X201.329 Y193.081
G0 X202.228 Y212.827
G0 X202.228 Y213.922
G0 X216 Y217.504
M204 S1000
M205 X8 Y8
;TYPE:WALL-INNER
G1 F2400 E73.24708
