;FLAVOR:Marlin
;TIME:3325
;Filament used: 3.13438m
;Layer height: 0.2
;MINX:0
;MINY:0
;MINZ:0.2
;MAXX:229.6
;MAXY:226.042
;MAXZ:38
;TARGET_MACHINE.NAME:Anycubic Kobra Max
;Generated with Cura_SteamEngine 5.13.0
M140 S60
M105
M190 S60
M104 S195
M105
M109 S195
G28 ;Home
G1 Z15.0 F1200 ;Move the platform down 15mm
;Prime the extruder
G92 E0
G1 F200 E3
G92 E0
M82 ;absolute extrusion mode
G92 E0
G92 E0
G1 F2400 E-6
;LAYER_COUNT:190
;LAYER:0
M107
M204 S3000
M205 X10 Y10
G1 F1200 Z0.275
G0 F6000 X178.624 Y194.369
M204 S1000
M205 X8 Y8
;TYPE:SKIRT
G1 F1200 Z0.2
G1 F2400 E0
G1 X179.322 Y193.742 E0.04981
G1 X180.51 Y192.806 E0.13009
G1 X181.237 Y192.31 E0.17681
G1 X182.499 Y191.573 E0.25439
G1 X183.564 Y191.043 E0.31753
G1 X184.439 Y190.672 E0.36798
G1 X185.76 Y190.219 E0.44211
G1 X186.849 Y189.923 E0.50202
G1 X188.132 Y189.672 E0.57142
G1 X189.43 Y189.505 E0.64089
G1 X190.171 Y189.455 E0.68031
G1 X191.588 Y189.449 E0.75553
G1 X192.971 Y189.547 E0.82913
G1 X193.983 Y189.687 E0.88336
G1 X195.395 Y189.983 E0.95994
G1 X196.318 Y190.243 E1.01085
G1 X197.655 Y190.715 E1.08611
G1 X198.811 Y191.221 E1.1531
G1 X199.577 Y191.612 E1.19875
G1 X200.928 Y192.421 E1.28234
G1 X201.855 Y193.072 E1.34247
G1 X202.551 Y193.628 E1.38976
G1 X203.674 Y194.656 E1.47057
G1 X204.371 Y195.386 E1.52415
G1 X205.003 Y196.141 E1.57642
G1 X207.625 Y196.159 E1.7156
G1 X207.659 Y183.874 E2.36773
G1 X207.823 Y182.706 E2.43034
G1 X208.297 Y181.49 E2.49962
G1 X209.085 Y180.068 E2.58592
G1 X210.162 Y179.081 E2.66347
G1 X211.17 Y178.347 E2.72966
G1 X212.842 Y177.627 E2.82629
G1 X214.494 Y177.444 E2.91452
G1 X218.544 Y177.472 E3.12952
G1 X219.828 Y177.653 E3.19835
G1 X221.031 Y178.159 E3.26763
G1 X222.364 Y178.899 E3.34856
G1 X223.315 Y179.93 E3.42301
G1 X224.098 Y181.003 E3.49353
G1 X224.815 Y182.662 E3.58946
G1 X225 Y184.442 E3.68446
G1 X224.969 Y200.389 E4.53098
G1 X226.09 Y201.029 E4.5995
G1 X227.037 Y201.868 E4.66666
G1 X227.812 Y202.718 E4.72772
G1 X228.687 Y204.508 E4.83349
G1 X229 Y206.25 E4.92744
G1 X229.004 Y211.878 E5.22619
G1 X229.219 Y212.49 E5.26062
G1 X229.6 Y214.064 E5.34659
G1 X229.598 Y217.89 E5.54968
G1 X228.759 Y220.584 E5.69947
G1 X227.342 Y222.666 E5.83315
G1 X226.307 Y223.743 E5.91244
G1 X224.085 Y225.237 E6.05458
G1 X221.391 Y226.042 E6.20383
G1 X217.809 Y226.003 E6.39399
G1 X216.59 Y225.833 E6.45932
G1 X216.011 Y225.632 E6.49186
G1 X215.419 Y225.85 E6.52534
G1 X214.13 Y226.012 E6.59431
G1 X211.077 Y226.036 E6.75637
G1 X209.522 Y225.77 E6.84012
G1 X207.449 Y224.927 E6.95891
G1 X206.056 Y224.045 E7.04643
G1 X204.525 Y222.475 E7.16284
G1 X203.642 Y221.328 E7.23968
G1 X203.331 Y220.547 E7.2843
G1 X202.661 Y221.148 E7.33208
G1 X201.54 Y222.031 E7.40783
G1 X200.688 Y222.612 E7.46257
G1 X199.654 Y223.221 E7.52627
G1 X198.363 Y223.864 E7.60283
G1 X197.487 Y224.228 E7.65319
G1 X196.085 Y224.702 E7.73175
G1 X194.998 Y224.99 E7.79144
G1 X193.977 Y225.188 E7.84665
G1 X192.599 Y225.363 E7.92038
G1 X191.329 Y225.432 E7.9879
G1 X190.141 Y225.419 E8.05096
G1 X189.398 Y225.367 E8.0905
G1 X187.835 Y225.156 E8.17422
G1 X186.829 Y224.949 E8.22874
G1 X185.74 Y224.646 E8.28875
G1 X184.309 Y224.153 E8.36909
G1 X183.512 Y223.811 E8.41513
G1 X182.253 Y223.168 E8.49017
G1 X181.097 Y222.476 E8.56169
G1 X180.445 Y222.025 E8.60377
G1 X179.18 Y221.017 E8.68964
G1 X178.56 Y220.451 E8.7342
G1 X177.549 Y219.395 E8.8118
G1 X176.724 Y218.404 E8.88025
G1 X176.202 Y217.688 E8.92729
G1 X175.477 Y216.544 E8.99918
G1 X174.834 Y215.348 E9.07126
G1 X174.351 Y214.277 E9.13363
G1 X174 Y213.357 E9.1859
G1 X173.612 Y212.088 E9.25634
G1 X173.362 Y211.021 E9.31451
G1 X173.147 Y209.702 E9.38546
G1 X173.023 Y208.35 E9.45752
G1 X173 Y207.191 E9.51906
G1 X173.032 Y206.334 E9.56458
G1 X173.174 Y204.974 E9.63717
G1 X173.358 Y203.884 E9.69585
G1 X173.7 Y202.466 E9.77328
G1 X173.984 Y201.573 E9.82302
G1 X174.54 Y200.161 E9.90358
G1 X175.049 Y199.091 E9.96648
G1 X175.462 Y198.346 E10.01169
G1 X176.15 Y197.269 E10.07953
G1 X177.029 Y196.083 E10.1579
G1 X177.514 Y195.512 E10.19766
G1 X178.624 Y194.369 E10.28224
M204 S3000
M205 X10 Y10
G0 F6000 X178.998 Y194.786
M204 S1000
M205 X8 Y8
G1 F2400 X179.696 Y194.159 E10.33205
G1 X180.826 Y193.269 E10.4084
G1 X181.553 Y192.773 E10.45512
G1 X182.749 Y192.074 E10.52865
G1 X183.783 Y191.559 E10.58997
G1 X184.658 Y191.188 E10.64042
G1 X185.941 Y190.749 E10.71241
G1 X186.957 Y190.473 E10.76829
G1 X188.24 Y190.222 E10.83769
G1 X189.468 Y190.064 E10.90341
G1 X190.209 Y190.014 E10.94284
G1 X191.549 Y190.008 E11.01397
G1 X192.894 Y190.102 E11.08554
G1 X193.906 Y190.242 E11.13977
G1 X195.243 Y190.522 E11.21228
G1 X196.166 Y190.782 E11.26319
G1 X197.431 Y191.228 E11.33439
G1 X198.557 Y191.72 E11.39962
G1 X199.29 Y192.093 E11.44327
G1 X200.606 Y192.879 E11.52464
G1 X201.505 Y193.51 E11.58295
G1 X202.201 Y194.066 E11.63023
G1 X203.269 Y195.043 E11.70707
G1 X203.966 Y195.773 E11.76065
G1 X204.741 Y196.699 E11.82475
G1 X207.852 Y196.721 E11.98989
G1 X208.184 Y196.762 E12.00765
G1 X208.214 Y183.952 E12.68765
G1 X208.369 Y182.848 E12.74683
G1 X208.787 Y181.762 E12.8086
G1 X209.531 Y180.42 E12.89005
G1 X210.492 Y179.534 E12.95944
G1 X211.453 Y178.834 E13.02255
G1 X212.984 Y178.175 E13.11103
G1 X214.556 Y178.001 E13.19498
G1 X218.466 Y178.027 E13.40254
G1 X219.678 Y178.198 E13.46752
G1 X220.759 Y178.649 E13.52969
G1 X222.013 Y179.345 E13.60583
G1 X222.903 Y180.31 E13.67551
G1 X223.609 Y181.282 E13.73928
G1 X224.267 Y182.805 E13.82735
G1 X224.44 Y184.441 E13.91468
G1 X224.41 Y200.365 E14.75998
G1 X224.371 Y200.692 E14.77746
G1 X225.763 Y201.487 E14.86255
G1 X226.623 Y202.245 E14.9234
G1 X227.344 Y203.036 E14.98022
G1 X228.15 Y204.684 E15.0776
G1 X228.44 Y206.299 E15.1647
G1 X228.444 Y211.974 E15.46595
G1 X228.675 Y212.622 E15.50247
G1 X229.04 Y214.13 E15.58483
G1 X229.038 Y217.804 E15.77986
G1 X228.249 Y220.338 E15.92074
G1 X226.906 Y222.311 E16.04743
G1 X225.944 Y223.312 E16.12113
G1 X223.844 Y224.724 E16.25546
G1 X221.311 Y225.481 E16.3958
G1 X217.886 Y225.448 E16.57761
G1 X216.667 Y225.278 E16.64295
G1 X216.002 Y225.032 E16.68059
G1 X215.349 Y225.294 E16.71794
G1 X214.06 Y225.456 E16.7869
G1 X211.122 Y225.476 E16.94286
G1 X209.678 Y225.229 E17.02063
G1 X207.706 Y224.427 E17.13363
G1 X206.411 Y223.607 E17.215
G1 X204.969 Y222.133 E17.32446
G1 X204.132 Y221.046 E17.39728
G1 X203.534 Y219.542 E17.4832
G1 X202.965 Y220.123 E17.52637
G1 X202.287 Y220.731 E17.57471
G1 X201.224 Y221.568 E17.64653
G1 X200.372 Y222.149 E17.70127
G1 X199.404 Y222.72 E17.76093
G1 X198.148 Y223.347 E17.83545
G1 X197.308 Y223.697 E17.88375
G1 X195.906 Y224.171 E17.96231
G1 X194.891 Y224.44 E18.01805
G1 X193.906 Y224.632 E18.07132
G1 X192.528 Y224.807 E18.14506
G1 X191.335 Y224.872 E18.20848
G1 X190.18 Y224.86 E18.2698
G1 X189.437 Y224.808 E18.30933
G1 X187.948 Y224.607 E18.38909
G1 X186.942 Y224.4 E18.44361
G1 X185.89 Y224.107 E18.50158
G1 X184.529 Y223.638 E18.578
G1 X183.767 Y223.312 E18.62199
G1 X182.508 Y222.669 E18.69704
G1 X181.416 Y222.015 E18.7646
G1 X180.764 Y221.564 E18.80669
G1 X179.558 Y220.603 E18.88854
G1 X178.938 Y220.037 E18.93311
G1 X177.979 Y219.036 E19.00669
G1 X177.177 Y218.074 E19.07318
G1 X176.655 Y217.358 E19.12021
G1 X175.97 Y216.278 E19.1881
G1 X175.344 Y215.117 E19.25812
G1 X174.874 Y214.077 E19.3187
G1 X174.536 Y213.193 E19.36894
G1 X174.148 Y211.924 E19.43938
G1 X173.915 Y210.93 E19.49358
G1 X173.705 Y209.65 E19.56243
G1 X173.583 Y208.339 E19.63232
G1 X173.56 Y207.212 E19.69216
G1 X173.592 Y206.355 E19.73769
G1 X173.731 Y205.033 E19.80825
G1 X173.91 Y203.978 E19.86505
G1 X174.234 Y202.636 E19.93834
G1 X174.518 Y201.743 E19.98808
G1 X175.046 Y200.401 E20.06463
G1 X175.539 Y199.363 E20.12563
G1 X175.952 Y198.618 E20.17085
G1 X176.6 Y197.602 E20.23482
G1 X177.456 Y196.446 E20.31117
G1 X177.941 Y195.875 E20.35094
G1 X178.998 Y194.786 E20.4315
M204 S3000
M205 X10 Y10
G0 F6000 X179.372 Y195.203
M204 S1000
M205 X8 Y8
G1 F2400 X180.07 Y194.576 E20.48131
G1 X181.142 Y193.732 E20.55373
G1 X181.869 Y193.236 E20.60045
G1 X182.999 Y192.575 E20.66994
G1 X184.002 Y192.075 E20.72943
G1 X184.877 Y191.704 E20.77989
G1 X186.122 Y191.279 E20.84972
G1 X187.065 Y191.023 E20.90159
G1 X188.348 Y190.772 E20.97098
G1 X189.506 Y190.623 E21.03296
G1 X190.247 Y190.573 E21.07239
G1 X191.511 Y190.567 E21.13948
G1 X192.817 Y190.657 E21.20897
G1 X193.829 Y190.797 E21.26321
G1 X195.092 Y191.061 E21.3317
G1 X195.98 Y191.31 E21.38066
G1 X197.207 Y191.741 E21.44969
G1 X198.304 Y192.22 E21.51323
G1 X199.003 Y192.574 E21.55482
G1 X200.284 Y193.337 E21.63397
G1 X201.155 Y193.948 E21.69045
G1 X201.851 Y194.504 E21.73774
G1 X202.864 Y195.43 E21.81059
G1 X203.561 Y196.16 E21.86417
G1 X204.258 Y196.988 E21.92162
G1 X204.455 Y197.257 E21.93932
G1 X207.848 Y197.281 E22.11943
G1 X208.743 Y197.404 E22.16739
G1 X208.769 Y184.03 E22.87733
G1 X208.915 Y182.988 E22.93318
G1 X209.277 Y182.033 E22.98739
G1 X209.976 Y180.772 E23.06393
G1 X210.872 Y179.946 E23.12862
G1 X211.734 Y179.322 E23.18511
G1 X213.128 Y178.722 E23.26567
G1 X214.553 Y178.561 E23.34179
G1 X218.388 Y178.582 E23.54537
G1 X219.532 Y178.743 E23.60669
G1 X220.487 Y179.139 E23.66157
G1 X221.662 Y179.791 E23.73291
G1 X222.491 Y180.69 E23.79782
G1 X223.12 Y181.562 E23.85489
G1 X223.719 Y182.948 E23.93505
G1 X223.88 Y184.44 E24.01471
G1 X223.85 Y200.364 E24.86
G1 X223.748 Y201.107 E24.89981
G1 X224.191 Y201.234 E24.92428
G1 X225.436 Y201.945 E25.00038
G1 X226.209 Y202.622 E25.05493
G1 X226.876 Y203.354 E25.1075
G1 X227.613 Y204.86 E25.1965
G1 X227.88 Y206.348 E25.27675
G1 X227.884 Y212.072 E25.5806
G1 X228.147 Y212.81 E25.62219
G1 X228.48 Y214.195 E25.6978
G1 X228.478 Y217.718 E25.88481
G1 X227.739 Y220.092 E26.0168
G1 X226.47 Y221.956 E26.1365
G1 X225.581 Y222.881 E26.2046
G1 X223.603 Y224.211 E26.33113
G1 X221.231 Y224.92 E26.46255
G1 X217.891 Y224.888 E26.63985
G1 X216.804 Y224.732 E26.69814
G1 X216.046 Y224.452 E26.74104
G1 X215.927 Y224.459 E26.74737
G1 X215.209 Y224.747 E26.78843
G1 X213.99 Y224.9 E26.85365
G1 X211.167 Y224.916 E27.0035
G1 X209.834 Y224.688 E27.07529
G1 X207.96 Y223.925 E27.1827
G1 X206.767 Y223.17 E27.25764
G1 X205.413 Y221.791 E27.36023
G1 X204.622 Y220.764 E27.42904
G1 X203.816 Y218.737 E27.54484
G1 X203.759 Y218.508 E27.55737
G1 X202.591 Y219.706 E27.64618
G1 X201.913 Y220.314 E27.69452
G1 X200.908 Y221.105 E27.76241
G1 X200.056 Y221.686 E27.81716
G1 X199.12 Y222.237 E27.87481
G1 X197.932 Y222.83 E27.94529
G1 X197.129 Y223.166 E27.9915
G1 X195.727 Y223.64 E28.07006
G1 X194.783 Y223.89 E28.1219
G1 X193.835 Y224.076 E28.17318
G1 X192.457 Y224.251 E28.24692
G1 X191.34 Y224.312 E28.3063
G1 X190.219 Y224.301 E28.36581
G1 X189.476 Y224.249 E28.40535
G1 X188.061 Y224.058 E28.48114
G1 X187.055 Y223.851 E28.53566
G1 X186.04 Y223.568 E28.5916
G1 X184.749 Y223.123 E28.66408
G1 X184.022 Y222.813 E28.70604
G1 X182.763 Y222.17 E28.78108
G1 X181.735 Y221.554 E28.8447
G1 X181.083 Y221.103 E28.88678
G1 X179.936 Y220.189 E28.96463
G1 X179.316 Y219.623 E29.0092
G1 X178.409 Y218.677 E29.07877
G1 X177.63 Y217.744 E29.14329
G1 X177.108 Y217.028 E29.19032
G1 X176.463 Y216.012 E29.2542
G1 X175.837 Y214.851 E29.32422
G1 X175.397 Y213.876 E29.381
G1 X175.072 Y213.029 E29.42916
G1 X174.684 Y211.76 E29.4996
G1 X174.468 Y210.839 E29.54982
G1 X174.263 Y209.597 E29.61664
G1 X174.143 Y208.327 E29.68436
G1 X174.12 Y207.232 E29.7425
G1 X174.149 Y206.414 E29.78594
G1 X174.288 Y205.092 E29.85651
G1 X174.462 Y204.072 E29.91143
G1 X174.768 Y202.805 E29.98062
G1 X175.039 Y201.948 E30.02834
G1 X175.552 Y200.641 E30.10287
G1 X176.029 Y199.635 E30.16197
G1 X176.442 Y198.89 E30.20719
G1 X177.072 Y197.904 E30.2693
G1 X177.883 Y196.809 E30.34163
G1 X178.368 Y196.238 E30.3814
G1 X179.372 Y195.203 E30.45794
M204 S3000
M205 X10 Y10
G0 F6000 X179.746 Y195.62
M204 S1000
M205 X8 Y8
G1 F2400 X180.444 Y194.993 E30.50775
G1 X181.458 Y194.195 E30.57625
G1 X182.185 Y193.699 E30.62296
G1 X183.281 Y193.059 E30.69034
G1 X184.221 Y192.591 E30.74608
G1 X185.096 Y192.22 E30.79653
G1 X186.303 Y191.809 E30.86421
G1 X187.173 Y191.573 E30.91206
G1 X188.456 Y191.322 E30.98146
G1 X189.544 Y191.182 E31.03969
G1 X190.285 Y191.132 E31.07911
G1 X191.473 Y191.126 E31.14218
G1 X192.74 Y191.212 E31.20959
G1 X193.752 Y191.352 E31.26382
G1 X194.941 Y191.6 E31.32829
G1 X195.829 Y191.849 E31.37725
G1 X196.983 Y192.254 E31.44217
G1 X198.052 Y192.72 E31.50407
G1 X198.717 Y193.055 E31.5436
G1 X199.963 Y193.796 E31.62055
G1 X200.805 Y194.386 E31.67513
G1 X201.501 Y194.942 E31.72242
G1 X202.459 Y195.817 E31.79129
G1 X203.156 Y196.547 E31.84487
G1 X203.806 Y197.319 E31.89844
G1 X204.169 Y197.815 E31.93107
G1 X207.772 Y197.836 E32.12233
G1 X208.727 Y197.967 E32.1735
G1 X209.301 Y198.177 E32.20594
G1 X209.329 Y184.031 E32.95686
G1 X209.46 Y183.129 E33.00524
G1 X209.767 Y182.304 E33.05197
G1 X210.421 Y181.124 E33.12359
G1 X211.252 Y180.358 E33.18358
G1 X212.015 Y179.81 E33.23345
G1 X213.273 Y179.269 E33.30614
G1 X214.551 Y179.121 E33.37443
G1 X218.31 Y179.137 E33.57397
G1 X219.385 Y179.288 E33.6316
G1 X220.215 Y179.629 E33.67923
G1 X221.311 Y180.237 E33.74576
G1 X222.079 Y181.07 E33.80591
G1 X222.63 Y181.839 E33.85612
G1 X223.171 Y183.091 E33.92852
G1 X223.32 Y184.439 E34.00052
G1 X223.29 Y200.363 E34.84581
G1 X223.167 Y201.208 E34.89114
G1 X223.065 Y201.522 E34.90867
G1 X223.913 Y201.72 E34.95489
G1 X225.109 Y202.403 E35.028
G1 X225.795 Y202.999 E35.07624
G1 X226.408 Y203.672 E35.12456
G1 X227.076 Y205.036 E35.20519
G1 X227.32 Y206.397 E35.27858
G1 X227.324 Y212.17 E35.58503
G1 X227.619 Y212.998 E35.63169
G1 X227.92 Y214.262 E35.70067
G1 X227.918 Y217.632 E35.87956
G1 X227.229 Y219.846 E36.00264
G1 X226.034 Y221.601 E36.11535
G1 X225.218 Y222.45 E36.17786
G1 X223.362 Y223.698 E36.29658
G1 X221.151 Y224.359 E36.41908
G1 X217.896 Y224.328 E36.59188
G1 X216.941 Y224.186 E36.64313
G1 X216.13 Y223.886 E36.68903
G1 X215.802 Y223.905 E36.70647
G1 X215.067 Y224.2 E36.74851
G1 X213.92 Y224.344 E36.80988
G1 X211.213 Y224.356 E36.95357
G1 X209.99 Y224.147 E37.01943
G1 X208.217 Y223.425 E37.12106
G1 X207.121 Y222.731 E37.18992
G1 X205.813 Y221.399 E37.28902
G1 X205.113 Y220.483 E37.35021
G1 X204.336 Y218.53 E37.46179
G1 X204.093 Y217.404 E37.52293
G1 X204.08 Y217.183 E37.53469
G1 X203.703 Y217.684 E37.56797
G1 X203.166 Y218.314 E37.61191
G1 X202.217 Y219.289 E37.68414
G1 X201.539 Y219.897 E37.73248
G1 X200.592 Y220.642 E37.79644
G1 X199.74 Y221.223 E37.85118
G1 X198.869 Y221.736 E37.90484
G1 X197.716 Y222.313 E37.97328
G1 X196.913 Y222.649 E38.01949
G1 X195.583 Y223.099 E38.09402
G1 X194.675 Y223.34 E38.14389
G1 X193.727 Y223.526 E38.19517
G1 X192.426 Y223.692 E38.26479
G1 X191.345 Y223.752 E38.32226
G1 X190.258 Y223.742 E38.37997
G1 X189.515 Y223.69 E38.41951
G1 X188.174 Y223.509 E38.49134
G1 X187.168 Y223.302 E38.54586
G1 X186.191 Y223.029 E38.5997
G1 X184.968 Y222.607 E38.66838
G1 X184.277 Y222.314 E38.70822
G1 X183.018 Y221.671 E38.78327
G1 X182.054 Y221.093 E38.84293
G1 X181.402 Y220.642 E38.88502
G1 X180.314 Y219.775 E38.95886
G1 X179.694 Y219.209 E39.00343
G1 X178.839 Y218.318 E39.06898
G1 X178.083 Y217.414 E39.13153
G1 X177.561 Y216.698 E39.17857
G1 X176.956 Y215.746 E39.23845
G1 X176.347 Y214.62 E39.3064
G1 X175.92 Y213.675 E39.36145
G1 X175.608 Y212.865 E39.40752
G1 X175.22 Y211.596 E39.47797
G1 X175.021 Y210.748 E39.5242
G1 X174.816 Y209.506 E39.59102
G1 X174.703 Y208.315 E39.65453
G1 X174.68 Y207.252 E39.71097
G1 X174.709 Y206.434 E39.75442
G1 X174.84 Y205.186 E39.82103
G1 X175.014 Y204.166 E39.87596
G1 X175.302 Y202.973 E39.94111
G1 X175.56 Y202.152 E39.98679
G1 X176.058 Y200.881 E40.05925
G1 X176.519 Y199.907 E40.11645
G1 X176.932 Y199.162 E40.16167
